storage/app/icons/tabler/filled/calculator.svg

<!--
version: "2.26"
unicode: "fb26"
-->
<svg
  xmlns="http://www.w3.org/2000/svg"
  width="24"
  height="24"
  viewBox="0 0 24 24"
  fill="currentColor"
>
  <path d="M18 2a3 3 0 0 1 3 3v14a3 3 0 0 1 -3 3h-12a3 3 0 0 1 -3 -3v-14a3 3 0 0 1 3 -3zm-10 15a1 1 0 0 0 -1 1l.007 .127a1 1 0 0 0 1.993 -.117l-.007 -.127a1 1 0 0 0 -.993 -.883zm4 0a1 1 0 0 0 -1 1l.007 .127a1 1 0 0 0 1.993 -.117l-.007 -.127a1 1 0 0 0 -.993 -.883zm4 0a1 1 0 0 0 -1 1l.007 .127a1 1 0 0 0 1.993 -.117l-.007 -.127a1 1 0 0 0 -.993 -.883zm-8 -4a1 1 0 0 0 -1 1l.007 .127a1 1 0 0 0 1.993 -.117l-.007 -.127a1 1 0 0 0 -.993 -.883zm4 0a1 1 0 0 0 -1 1l.007 .127a1 1 0 0 0 1.993 -.117l-.007 -.127a1 1 0 0 0 -.993 -.883zm4 0a1 1 0 0 0 -1 1l.007 .127a1 1 0 0 0 1.993 -.117l-.007 -.127a1 1 0 0 0 -.993 -.883zm-1 -7h-6a2 2 0 0 0 -2 2v1a2 2 0 0 0 2 2h6a2 2 0 0 0 2 -2v-1a2 2 0 0 0 -2 -2z" />
</svg>

<svg xmlns="http://www.w3.org/2000/svg" width="24" height="24" fill="currentColor" viewBox="0 0 24 24"><path d="M18 2a3 3 0 0 1 3 3v14a3 3 0 0 1-3 3H6a3 3 0 0 1-3-3V5a3 3 0 0 1 3-3zM8 17a1 1 0 0 0-1 1l.007.127A1 1 0 0 0 9 18.01l-.007-.127A1 1 0 0 0 8 17m4 0a1 1 0 0 0-1 1l.007.127A1 1 0 0 0 13 18.01l-.007-.127A1 1 0 0 0 12 17m4 0a1 1 0 0 0-1 1l.007.127A1 1 0 0 0 17 18.01l-.007-.127A1 1 0 0 0 16 17m-8-4a1 1 0 0 0-1 1l.007.127A1 1 0 0 0 9 14.01l-.007-.127A1 1 0 0 0 8 13m4 0a1 1 0 0 0-1 1l.007.127A1 1 0 0 0 13 14.01l-.007-.127A1 1 0 0 0 12 13m4 0a1 1 0 0 0-1 1l.007.127A1 1 0 0 0 17 14.01l-.007-.127A1 1 0 0 0 16 13m-1-7H9a2 2 0 0 0-2 2v1a2 2 0 0 0 2 2h6a2 2 0 0 0 2-2V8a2 2 0 0 0-2-2"/></svg>
